src/assets/icons/pound.svg

<svg width="14" height="14" viewBox="0 0 14 14" fill="none" xmlns="http://www.w3.org/2000/svg">
<g id="pound">
<path id="Vector" d="M11.4312 12.8H3.88005L5.45925 10.544C5.52965 10.4432 5.56805 10.324 5.56805 10.2V7.6H8.16805C8.49925 7.6 8.76805 7.3312 8.76805 7C8.76805 6.6688 8.49925 6.4 8.16805 6.4H5.56805V3.8016C5.57285 2.2744 6.61605 1.2048 8.10165 1.2C9.74645 1.2048 10.768 2.2496 10.768 3.928V4.696C10.768 5.0272 11.0368 5.296 11.368 5.296C11.6992 5.296 11.968 5.0272 11.968 4.696V3.928C11.968 1.5848 10.416 0.0072 8.10165 0C5.94485 0.0064 4.37445 1.604 4.36805 3.8V6.4H2.56805C2.23685 6.4 1.96805 6.6688 1.96805 7C1.96805 7.3312 2.23685 7.6 2.56805 7.6H4.36805V10.0112L2.23685 13.0568C2.10805 13.24 2.09285 13.4792 2.19605 13.6776C2.29925 13.876 2.50405 14 2.72805 14H11.432C11.7632 14 12.032 13.7312 12.032 13.4C12.032 13.0688 11.7624 12.8 11.4312 12.8Z" fill="black"/>
</g>
</svg>

<svg xmlns="http://www.w3.org/2000/svg" fill="none" viewBox="0 0 14 14"><path fill="#000" d="M11.431 12.8h-7.55l1.578-2.256a.6.6 0 0 0 .11-.344V7.6h2.599a.6.6 0 0 0 0-1.2h-2.6V3.802C5.573 2.274 6.616 1.205 8.102 1.2c1.644.005 2.666 1.05 2.666 2.728v.768a.6.6 0 0 0 1.2 0v-.768c0-2.343-1.552-3.92-3.866-3.928-2.157.006-3.728 1.604-3.734 3.8v2.6h-1.8a.6.6 0 0 0 0 1.2h1.8v2.411l-2.131 3.046a.599.599 0 0 0 .491.943h8.704a.6.6 0 1 0 0-1.2"/></svg>
